X: 1
T: The Green Groves Of Erin
R: reel
M: 4/4
L: 1/8
K: Amix
|:A2 cA eAcA|G2 Bd gdBG|A2 cA eAcA|BGEF GBdB|A2 cA eAcA|G2 Bd gdBG|ABcdeAAc| BEED EA A2:||:eaag eaag|eggf eggf|eaag eaag|edef gdBd|eaag bgag|eggf afge|dega b2 ag|egfa gedB:|


Tune 41	Setting 12458

